packages/kaspersky-hexa-ui-icons/src/iconsSVGs/64x42/FlagSe.svg

<svg width="64" height="42" viewBox="0 0 64 42" fill="none" xmlns="http://www.w3.org/2000/svg">
<g clip-path="url(#clip0_37941_2350)">
<rect width="64" height="42" rx="5" fill="white"/>
<rect width="64" height="42" fill="#157CBB"/>
<path fill-rule="evenodd" clip-rule="evenodd" d="M-0.269897 25.2H18.5301V42H26.9301V25.2H65.5301V16.8H26.9301V0H18.5301V16.8H-0.269897V25.2Z" fill="#FFD34D"/>
</g>
<defs>
<clipPath id="clip0_37941_2350">
<rect width="64" height="42" rx="5" fill="white"/>
</clipPath>
</defs>
</svg>

<svg xmlns="http://www.w3.org/2000/svg" width="64" height="42" fill="none" viewBox="0 0 64 42"><g clip-path="url(#a)"><rect width="64" height="42" fill="#fff" rx="5"/><path fill="#157cbb" d="M0 0h64v42H0z"/><path fill="#ffd34d" fill-rule="evenodd" d="M-.2699 25.2h18.8V42h8.4V25.2h38.6v-8.4h-38.6V0h-8.4v16.8h-18.8z" clip-rule="evenodd"/></g><defs><clipPath id="a"><rect width="64" height="42" fill="#fff" rx="5"/></clipPath></defs></svg>
